Numix-GalliumOS/16/apps/icq.svg

<?xml version="1.0" encoding="UTF-8" standalone="no"?>
<svg
   xmlns:dc="http://purl.org/dc/elements/1.1/"
   xmlns:cc="http://creativecommons.org/ns#"
   xmlns:rdf="http://www.w3.org/1999/02/22-rdf-syntax-ns#"
   xmlns:svg="http://www.w3.org/2000/svg"
   xmlns="http://www.w3.org/2000/svg"
   xmlns:sodipodi="http://sodipodi.sourceforge.net/DTD/sodipodi-0.dtd"
   xmlns:inkscape="http://www.inkscape.org/namespaces/inkscape"
   version="1.1"
   width="16"
   height="16"
   id="svg2"
   inkscape:version="0.91 r"
   sodipodi:docname="icq.svg">
  <metadata
     id="metadata22">
    <rdf:RDF>
      <cc:Work
         rdf:about="">
        <dc:format>image/svg+xml</dc:format>
        <dc:type
           rdf:resource="http://purl.org/dc/dcmitype/StillImage" />
        <dc:title />
      </cc:Work>
    </rdf:RDF>
  </metadata>
  <defs
     id="defs20" />
  <sodipodi:namedview
     pagecolor="#ffffff"
     bordercolor="#666666"
     borderopacity="1"
     objecttolerance="10"
     gridtolerance="10"
     guidetolerance="10"
     inkscape:pageopacity="0"
     inkscape:pageshadow="2"
     inkscape:window-width="1920"
     inkscape:window-height="1056"
     id="namedview18"
     showgrid="true"
     inkscape:zoom="4.0081033"
     inkscape:cx="-71.082374"
     inkscape:cy="43.864595"
     inkscape:window-x="0"
     inkscape:window-y="24"
     inkscape:window-maximized="1"
     inkscape:current-layer="svg2">
    <inkscape:grid
       type="xygrid"
       id="grid4136" />
  </sodipodi:namedview>
  <path
     d="M 6.3351971,2.2198562 C 5.9560222,2.1336402 5.6456447,2.1681272 5.3181993,2.3405586 4.9560916,2.5647206 4.7491732,2.9095851 4.6629572,3.3922197 c -0.086216,0.499877 0,0.9826863 0.2586479,1.4653209 L 5.0423083,5.0297968 4.6284702,4.8918509 C 4.1113492,4.7711486 3.6285397,4.8401216 3.1459052,5.0987698 2.6460279,5.3574178 2.3356502,5.7193497 2.1287314,6.2194031 1.9390558,6.7022131 1.9564748,7.167604 2.1977044,7.598508 2.3011634,7.7881839 2.4563522,7.9431969 2.594122,8.0466559 2.8010407,8.2535749 3.0596893,8.3742774 3.3698911,8.4258309 L 3.4905937,8.4603159 3.2319452,8.6844773 C 2.9905404,8.8913958 2.8527706,9.1498688 2.7665546,9.4085172 c -0.086216,0.3103775 -0.05173,0.6205798 0.120702,0.9137138 0.086217,0.13777 0.1722567,0.258473 0.3102025,0.344689 0.137946,0.120703 0.3103776,0.206919 0.5171206,0.223986 0.379351,0.08622 0.775769,0.08622 1.2066734,-0.0519 l -0.3103779,0.51712 -0.086216,0.224337 c -0.172256,0.551608 -0.120702,1.034417 0.137946,1.534119 0.120702,0.189676 0.2586479,0.362284 0.3965941,0.517121 0.2069185,0.189675 0.465391,0.310378 0.7757689,0.396594 0.5171199,0.137769 1.0344169,0.120703 1.5342943,-0.13777 0.48281,-0.258824 0.7930124,-0.672485 0.9482014,-1.189782 l 0.01724,-0.103459 c 0.327444,0.362283 0.637822,0.603513 0.982687,0.689729 0.344688,0.103458 0.6895531,0.08622 0.9999311,-0.120703 0.293134,-0.172432 0.499877,-0.465567 0.603336,-0.827498 0.08622,-0.379352 0.08622,-0.758527 0,-1.189431 0.172257,0.120703 0.344689,0.206567 0.551607,0.258473 0.551607,0.172431 1.034242,0.155012 1.517051,-0.10346 0.465568,-0.258472 0.77577,-0.672485 0.930958,-1.206849 0.137946,-0.5171213 0.10346,-1.0168222 -0.155188,-1.4996322 L 13.678874,8.4599639 C 13.540928,8.2530454 13.403158,8.0461264 13.19624,7.9083569 13.023983,7.7876544 12.817065,7.7014379 12.627389,7.615222 c 0.53454,-0.2586485 0.913715,-0.62058 1.086147,-1.0861464 0.120703,-0.379351 0.08622,-0.6895524 -0.08622,-0.9999309 l 0,-0.034485 C 13.420575,5.1497958 13.144684,4.9256336 12.713779,4.8051073 12.455131,4.7533773 12.161997,4.7533773 11.903525,4.7706213 L 11.334675,4.8913236 11.52435,4.4604193 C 11.696782,3.9088117 11.645052,3.3742727 11.351918,2.8743951 l -0.05173,-0.086216 C 11.041541,2.3570986 10.662366,2.0986262 10.145245,1.9606807 9.6108809,1.8227347 9.1110029,1.8744642 8.6281929,2.1331132 8.1455599,2.3915846 7.800695,2.7881791 7.6456815,3.3054758 l 0,0.034486 -0.017245,0.1207026 -0.06897,-0.1207027 -0.172433,-0.3103776 C 7.110966,2.5992076 6.7661011,2.3405586 6.3351971,2.2198562 l 0,0 z m 4.3961419,1.0344176 c 0.08622,0.1722559 0.137945,0.3791746 0.137945,0.6033362 l -0.05173,0.3791753 c -0.06897,0.1896747 -0.155189,0.3621073 -0.258649,0.51712 L 9.0073679,6.6504831 C 8.8521789,6.5297806 8.6797469,6.4435646 8.5073149,6.3573486 l -0.172256,-1.9479553 -0.01725,-0.6895529 0.01725,-0.172256 c 0.08622,-0.3446886 0.327445,-0.6033368 0.637823,-0.7757688 0.310202,-0.172256 0.655066,-0.206919 0.982511,-0.086216 0.3621081,0.08604 0.6207561,0.2757155 0.7759461,0.5686742 l 0,0 z M 5.3869963,3.5991384 c 0.017245,-0.3103786 0.137946,-0.5171213 0.3446884,-0.6378233 0.1034595,-0.086216 0.258648,-0.086216 0.396418,-0.017245 0.3103774,0.086216 0.5688499,0.3103777 0.7757689,0.741282 0.086217,0.1724319 0.172432,0.3446883 0.2069184,0.5516065 L 7.4554785,6.2713066 7.1968305,6.3575226 5.6625357,4.6852829 5.5763197,4.5130263 C 5.4387258,4.2024728 5.3525093,3.9095145 5.3869963,3.5991365 l 0,0 z M 4.4560382,5.6160662 4.9216051,5.8057417 6.4386566,6.9091316 C 6.3007107,7.081388 6.2146707,7.25382 6.1629412,7.426252 L 3.6804447,7.7366299 3.5080127,7.7021449 C 3.1976351,7.650414 2.9908924,7.512468 2.8529466,7.253996 2.7150008,6.9953475 2.7150008,6.7368751 2.8184598,6.4782271 2.9391625,6.1506056 3.1631483,5.8919577 3.4907697,5.7541882 3.8009714,5.5815802 4.1111742,5.5298507 4.4560382,5.6160662 l 0,0 z m 1.637754,2.8099412 0.1207025,0.3448639 0.05173,0.120702 c -0.258648,0.223987 -0.448323,0.4309044 -0.655066,0.6205804 L 5.0938613,9.9432342 4.9559156,10.02945 C 4.6282942,10.184463 4.3525792,10.236369 4.0594442,10.201707 3.8007954,10.184462 3.5938767,10.098247 3.5076607,9.9432342 l -0.05173,-0.189676 0.034487,-0.155013 c 0.086216,-0.258824 0.3103776,-0.5171199 0.7069725,-0.7069719 0.206743,-0.086216 0.3791744,-0.172432 0.5171209,-0.206918 l 1.3792812,-0.2586479 0,0 z M 11.472445,5.6333097 c 0.310378,-0.137946 0.603337,-0.1724325 0.913714,-0.137946 0.293135,0.034485 0.500054,0.1722565 0.603337,0.379175 l 0.06897,0.223986 -0.03449,0.1724319 c -0.120702,0.310378 -0.379351,0.551607 -0.810256,0.7412824 -0.172255,0.086216 -0.36193,0.1207025 -0.568849,0.155013 l -2.1203881,0.2586485 -0.03449,-0.120703 -0.03449,-0.051553 0.06897,-0.086216 1.7412131,-1.4480778 0.206743,-0.08604 0,0 z M 7.0764796,7.271063 C 7.2832225,7.081388 7.559114,6.9608615 7.8867349,6.9608615 c 0.310379,0 0.603336,0.1207025 0.793012,0.3102015 0.241405,0.241405 0.344864,0.5000539 0.344864,0.8102554 0,0.310202 -0.103459,0.6033369 -0.344864,0.8102549 -0.224162,0.223987 -0.482633,0.3446889 -0.793012,0.3446889 -0.3276209,0 -0.6035124,-0.1207019 -0.8102553,-0.3446889 C 6.8523181,8.6846553 6.7317911,8.3915204 6.7317911,8.0813184 c 0,-0.3102015 0.120527,-0.5688504 0.3446885,-0.8102554 l 0,0 z m 0.3964179,2.4997392 c 0.034485,0.5862688 0.086216,1.2068488 0.1724325,1.8791588 l 0,0.689728 -0.017245,0.172433 C 7.507383,12.822148 7.300464,13.080796 6.9902616,13.218741 6.6800596,13.391174 6.3524386,13.42566 6.0420607,13.339444 5.6973722,13.253584 5.4387238,13.046661 5.3007778,12.77077 5.2145618,12.598338 5.1455888,12.391419 5.1455888,12.1845 l 0.086216,-0.396242 c 0.034485,-0.172432 0.1207025,-0.34504 0.2586485,-0.482809 L 6.9385316,9.5813027 C 7.1109635,9.6673427 7.28322,9.7535582 7.472895,9.7708022 l 0,0 z m 1.3275514,-0.2241615 0.72404,0.7412823 0.448147,0.551607 0.08622,0.172432 c 0.15519,0.293135 0.241406,0.569026 0.206919,0.896647 -0.03449,0.310378 -0.137946,0.534364 -0.3446892,0.62058 -0.120702,0.08622 -0.258647,0.08622 -0.396418,0.0688 -0.327621,-0.08586 -0.586269,-0.344688 -0.775768,-0.758526 l -0.2069229,-0.568677 -0.258648,-1.4999838 0.293135,-0.10346 0.223985,-0.1207015 0,0 z m 0.775769,-1.0689039 1.9481331,-0.1722569 0.689552,-0.017245 0.172432,0.017245 c 0.258648,0.086217 0.500054,0.2414054 0.637823,0.4998774 0.172256,0.189676 0.258472,0.4481479 0.258472,0.7412834 l -0.05155,0.3446875 c -0.08621,0.3450408 -0.293134,0.6035138 -0.586269,0.7412828 -0.310378,0.172432 -0.620579,0.206919 -0.965444,0.08622 -0.206918,-0.05155 -0.344688,-0.13777 -0.465566,-0.275539 l -1.8101871,-1.4999847 0.120703,-0.258472 0.0519,-0.2070945 0,0 z"
     style="fill:#292929;fill-opacity:1"
     id="path10"
     inkscape:connector-curvature="0" />
  <path
     d="m 10.731339,3.2542738 c 0.08622,0.1722559 0.137945,0.3791746 0.137945,0.6033362 l -0.05173,0.3791753 c -0.06897,0.1896747 -0.155189,0.3621073 -0.258649,0.51712 L 9.0073679,6.6504831 C 8.8521789,6.5297806 8.6797469,6.4435646 8.5073149,6.3573486 l -0.172256,-1.9479553 -0.01725,-0.6895529 0.01725,-0.172256 c 0.08622,-0.3446886 0.327445,-0.6033368 0.637823,-0.7757688 0.310202,-0.172256 0.655066,-0.206919 0.982511,-0.086216 0.3621081,0.08604 0.6207561,0.2757155 0.7759461,0.5686742 l 0,0 z M 5.3869963,3.5991384 c 0.017245,-0.3103786 0.137946,-0.5171213 0.3446884,-0.6378233 0.1034595,-0.086216 0.258648,-0.086216 0.396418,-0.017245 0.3103774,0.086216 0.5688499,0.3103777 0.7757689,0.741282 0.086217,0.1724319 0.172432,0.3446883 0.2069184,0.5516065 L 7.4554785,6.2713066 7.1968305,6.3575226 5.6625357,4.6852829 5.5763197,4.5130263 C 5.4387258,4.2024728 5.3525093,3.9095145 5.3869963,3.5991365 l 0,0 z M 4.4560382,5.6160662 4.9216051,5.8057417 6.4386566,6.9091316 C 6.3007107,7.081388 6.2146707,7.25382 6.1629412,7.426252 L 3.6804447,7.7366299 3.5080127,7.7021449 C 3.1976351,7.650414 2.9908924,7.512468 2.8529466,7.253996 2.7150008,6.9953475 2.7150008,6.7368751 2.8184598,6.4782271 2.9391625,6.1506056 3.1631483,5.8919577 3.4907697,5.7541882 3.8009714,5.5815802 4.1111742,5.5298507 4.4560382,5.6160662 l 0,0 z m 7.0164068,0.017245 c 0.310378,-0.1379455 0.603337,-0.1724325 0.913714,-0.1379455 0.293135,0.034485 0.500054,0.172256 0.603337,0.3791745 l 0.06897,0.2239855 -0.03449,0.1724324 c -0.120702,0.310378 -0.379351,0.551607 -0.810256,0.7412824 -0.172255,0.086216 -0.36193,0.1207025 -0.568849,0.155013 l -2.1203881,0.258649 -0.03449,-0.120703 -0.03449,-0.051554 0.06897,-0.086216 1.7412131,-1.4480778 0.206743,-0.08604 0,0 z M 7.4728975,9.7708037 c 0.034485,0.5862693 0.086216,1.2068483 0.1724325,1.8791583 l 0,0.689729 -0.017245,0.172433 c -0.120702,0.310025 -0.327621,0.568674 -0.6378234,0.706619 -0.310202,0.172433 -0.637823,0.206919 -0.9482009,0.120703 -0.3446885,-0.08586 -0.6033369,-0.292783 -0.7412829,-0.568675 -0.086216,-0.172432 -0.155189,-0.37935 -0.155189,-0.586269 l 0.086216,-0.396242 c 0.034485,-0.172433 0.1207025,-0.34504 0.2586485,-0.48281 L 6.9385316,9.5813042 C 7.1109635,9.6673442 7.28322,9.7535597 7.472895,9.7708037 l 0,0 z m 1.3275514,-0.2241615 0.72404,0.7412818 0.448147,0.551608 0.08622,0.172431 c 0.15519,0.293135 0.241406,0.569026 0.206919,0.896647 -0.03449,0.310379 -0.137946,0.534365 -0.3446892,0.62058 -0.120702,0.08622 -0.258647,0.08622 -0.396418,0.0688 -0.327621,-0.08586 -0.586269,-0.344688 -0.775768,-0.758526 l -0.206919,-0.568673 -0.258648,-1.4999843 0.293135,-0.10346 0.223985,-0.1207015 0,0 z m 0.775769,-1.0689039 1.9481331,-0.1722569 0.689552,-0.017245 0.172432,0.017245 c 0.258648,0.086217 0.500054,0.2414054 0.637823,0.4998774 0.172256,0.189676 0.258472,0.4481479 0.258472,0.7412834 l -0.05155,0.3446875 c -0.08621,0.3450413 -0.293134,0.6035133 -0.586269,0.7412833 -0.310378,0.172432 -0.620579,0.206919 -0.965444,0.08622 -0.206918,-0.05155 -0.344688,-0.13777 -0.465566,-0.27554 l -1.8101871,-1.4999842 0.120703,-0.258472 0.0519,-0.2070945 0,0 z"
     style="fill:#73db47;fill-opacity:1"
     id="path12"
     inkscape:connector-curvature="0" />
  <path
     d="m 6.0937922,8.4260074 0.1207025,0.3448639 0.05173,0.120702 c -0.258648,0.223987 -0.448323,0.4309044 -0.655066,0.6205804 L 5.0938613,9.9432342 4.9559156,10.02945 C 4.6282942,10.184463 4.3525792,10.236369 4.0594442,10.201707 3.8007954,10.184462 3.5938767,10.098247 3.5076607,9.9432342 l -0.05173,-0.189676 0.034487,-0.155013 c 0.086216,-0.258824 0.3103776,-0.5171199 0.7069725,-0.7069719 0.206743,-0.086216 0.3791744,-0.172432 0.5171209,-0.206918 l 1.3792812,-0.2586479 0,0 z"
     style="fill:#f03c4e;fill-opacity:1"
     id="path14"
     inkscape:connector-curvature="0" />
  <path
     d="M 7.0764796,7.271063 C 7.2832225,7.081388 7.559114,6.9608615 7.8867349,6.9608615 c 0.310379,0 0.603336,0.1207025 0.793012,0.3102015 0.241405,0.241405 0.344864,0.5000539 0.344864,0.8102554 0,0.310202 -0.103459,0.6033369 -0.344864,0.8102549 -0.224162,0.223987 -0.482633,0.3446889 -0.793012,0.3446889 -0.3276209,0 -0.6035124,-0.1207019 -0.8102553,-0.3446889 C 6.8523181,8.6846553 6.7317911,8.3915204 6.7317911,8.0813184 c 0,-0.3102015 0.120527,-0.5688504 0.3446885,-0.8102554 l 0,0 z"
     style="fill:#fffd59;fill-opacity:1"
     id="path16"
     inkscape:connector-curvature="0" />
</svg>

<svg xmlns="http://www.w3.org/2000/svg" viewBox="0 0 16 16">
 <path d="m 6.335 2.22 c -0.379 -0.086 -0.69 -0.052 -1.017 0.121 -0.362 0.224 -0.569 0.569 -0.655 1.052 c -0.086 0.5 0 0.983 0.259 1.465 l 0.121 0.172 -0.414 -0.138 c -0.517 -0.121 -1 -0.052 -1.483 0.207 -0.5 0.259 -0.81 0.621 -1.017 1.121 -0.19 0.483 -0.172 0.948 0.069 1.379 0.103 0.19 0.259 0.345 0.396 0.448 0.207 0.207 0.466 0.328 0.776 0.379 l 0.121 0.034 -0.259 0.224 c -0.241 0.207 -0.379 0.465 -0.465 0.724 c -0.086 0.31 -0.052 0.621 0.121 0.914 0.086 0.138 0.172 0.258 0.31 0.345 0.138 0.121 0.31 0.207 0.517 0.224 0.379 0.086 0.776 0.086 1.207 -0.052 l -0.31 0.517 -0.086 0.224 c -0.172 0.552 -0.121 1.034 0.138 1.534 0.121 0.19 0.259 0.362 0.397 0.517 0.207 0.19 0.465 0.31 0.776 0.397 0.517 0.138 1.034 0.121 1.534 -0.138 0.483 -0.259 0.793 -0.672 0.948 -1.19 l 0.017 -0.103 c 0.327 0.362 0.638 0.604 0.983 0.69 0.345 0.103 0.69 0.086 1 -0.121 0.293 -0.172 0.5 -0.466 0.603 -0.827 0.086 -0.379 0.086 -0.759 0 -1.189 0.172 0.121 0.345 0.207 0.552 0.258 0.552 0.172 1.034 0.155 1.517 -0.103 0.466 -0.258 0.776 -0.672 0.931 -1.207 0.138 -0.517 0.103 -1.017 -0.155 -1.5 l -0.086 -0.138 c -0.138 -0.207 -0.276 -0.414 -0.483 -0.552 -0.172 -0.121 -0.379 -0.207 -0.569 -0.293 c 0.535 -0.259 0.914 -0.621 1.086 -1.086 0.121 -0.379 0.086 -0.69 -0.086 -1 l 0 -0.034 c -0.207 -0.345 -0.483 -0.569 -0.914 -0.69 -0.259 -0.052 -0.552 -0.052 -0.81 -0.034 l -0.569 0.121 0.19 -0.431 c 0.172 -0.552 0.121 -1.086 -0.172 -1.586 l -0.052 -0.086 c -0.259 -0.431 -0.638 -0.69 -1.155 -0.827 -0.534 -0.138 -1.034 -0.086 -1.517 0.172 -0.483 0.258 -0.827 0.655 -0.983 1.172 l 0 0.034 -0.017 0.121 -0.069 -0.121 -0.172 -0.31 c -0.276 -0.43 -0.621 -0.689 -1.052 -0.81 l 0 0 z m 4.396 1.034 c 0.086 0.172 0.138 0.379 0.138 0.603 l -0.052 0.379 c -0.069 0.19 -0.155 0.362 -0.259 0.517 l -1.552 1.897 c -0.155 -0.121 -0.328 -0.207 -0.5 -0.293 l -0.172 -1.948 -0.017 -0.69 0.017 -0.172 c 0.086 -0.345 0.327 -0.603 0.638 -0.776 0.31 -0.172 0.655 -0.207 0.983 -0.086 0.362 0.086 0.621 0.276 0.776 0.569 l 0 0 z m -5.344 0.345 c 0.017 -0.31 0.138 -0.517 0.345 -0.638 0.103 -0.086 0.259 -0.086 0.396 -0.017 0.31 0.086 0.569 0.31 0.776 0.741 0.086 0.172 0.172 0.345 0.207 0.552 l 0.345 2.034 -0.259 0.086 -1.534 -1.672 -0.086 -0.172 c -0.138 -0.311 -0.224 -0.604 -0.189 -0.914 l 0 0 z m -0.931 2.02 0.466 0.19 1.517 1.103 c -0.138 0.172 -0.224 0.345 -0.276 0.517 l -2.482 0.31 -0.172 -0.034 c -0.31 -0.052 -0.517 -0.19 -0.655 -0.448 -0.138 -0.259 -0.138 -0.517 -0.034 -0.776 0.121 -0.328 0.345 -0.586 0.672 -0.724 0.31 -0.173 0.62 -0.224 0.965 -0.138 l 0 0 z m 1.638 2.81 0.121 0.345 0.052 0.121 c -0.259 0.224 -0.448 0.431 -0.655 0.621 l -0.517 0.431 -0.138 0.086 c -0.328 0.155 -0.603 0.207 -0.896 0.172 -0.259 -0.017 -0.466 -0.103 -0.552 -0.258 l -0.052 -0.19 0.034 -0.155 c 0.086 -0.259 0.31 -0.517 0.707 -0.707 0.207 -0.086 0.379 -0.172 0.517 -0.207 l 1.379 -0.259 0 0 z m 5.379 -2.793 c 0.31 -0.138 0.603 -0.172 0.914 -0.138 0.293 0.034 0.5 0.172 0.603 0.379 l 0.069 0.224 -0.034 0.172 c -0.121 0.31 -0.379 0.552 -0.81 0.741 -0.172 0.086 -0.362 0.121 -0.569 0.155 l -2.12 0.259 -0.034 -0.121 -0.034 -0.052 0.069 -0.086 1.741 -1.448 0.207 -0.086 0 0 z m -4.396 1.638 c 0.207 -0.19 0.483 -0.31 0.81 -0.31 c 0.31 0 0.603 0.121 0.793 0.31 0.241 0.241 0.345 0.5 0.345 0.81 0 0.31 -0.103 0.603 -0.345 0.81 -0.224 0.224 -0.483 0.345 -0.793 0.345 -0.328 0 -0.604 -0.121 -0.81 -0.345 c -0.224 -0.207 -0.345 -0.5 -0.345 -0.81 c 0 -0.31 0.121 -0.569 0.345 -0.81 l 0 0 z m 0.396 2.5 c 0.034 0.586 0.086 1.207 0.172 1.879 l 0 0.69 -0.017 0.172 c -0.121 0.31 -0.328 0.569 -0.638 0.707 -0.31 0.172 -0.638 0.207 -0.948 0.121 -0.345 -0.086 -0.603 -0.293 -0.741 -0.569 -0.086 -0.172 -0.155 -0.379 -0.155 -0.586 l 0.086 -0.396 c 0.034 -0.172 0.121 -0.345 0.259 -0.483 l 1.448 -1.724 c 0.172 0.086 0.345 0.172 0.534 0.189 l 0 0 z m 1.328 -0.224 0.724 0.741 0.448 0.552 0.086 0.172 c 0.155 0.293 0.241 0.569 0.207 0.897 -0.034 0.31 -0.138 0.534 -0.345 0.621 -0.121 0.086 -0.259 0.086 -0.396 0.069 -0.328 -0.086 -0.586 -0.345 -0.776 -0.759 l -0.207 -0.569 -0.259 -1.5 0.293 -0.103 0.224 -0.121 0 0 z m 0.776 -1.069 1.948 -0.172 0.69 -0.017 0.172 0.017 c 0.259 0.086 0.5 0.241 0.638 0.5 0.172 0.19 0.258 0.448 0.258 0.741 l -0.052 0.345 c -0.086 0.345 -0.293 0.604 -0.586 0.741 -0.31 0.172 -0.621 0.207 -0.965 0.086 -0.207 -0.052 -0.345 -0.138 -0.466 -0.276 l -1.81 -1.5 0.121 -0.258 0.052 -0.207 0 0 z" style="fill:#292929;fill-opacity:1"/>
 <path d="m 10.731 3.254 c 0.086 0.172 0.138 0.379 0.138 0.603 l -0.052 0.379 c -0.069 0.19 -0.155 0.362 -0.259 0.517 l -1.552 1.897 c -0.155 -0.121 -0.328 -0.207 -0.5 -0.293 l -0.172 -1.948 -0.017 -0.69 0.017 -0.172 c 0.086 -0.345 0.327 -0.603 0.638 -0.776 0.31 -0.172 0.655 -0.207 0.983 -0.086 0.362 0.086 0.621 0.276 0.776 0.569 l 0 0 z m -5.344 0.345 c 0.017 -0.31 0.138 -0.517 0.345 -0.638 0.103 -0.086 0.259 -0.086 0.396 -0.017 0.31 0.086 0.569 0.31 0.776 0.741 0.086 0.172 0.172 0.345 0.207 0.552 l 0.345 2.034 -0.259 0.086 -1.534 -1.672 -0.086 -0.172 c -0.138 -0.311 -0.224 -0.604 -0.189 -0.914 l 0 0 z m -0.931 2.02 0.466 0.19 1.517 1.103 c -0.138 0.172 -0.224 0.345 -0.276 0.517 l -2.482 0.31 -0.172 -0.034 c -0.31 -0.052 -0.517 -0.19 -0.655 -0.448 -0.138 -0.259 -0.138 -0.517 -0.034 -0.776 0.121 -0.328 0.345 -0.586 0.672 -0.724 0.31 -0.173 0.62 -0.224 0.965 -0.138 l 0 0 z m 7.02 0.017 c 0.31 -0.138 0.603 -0.172 0.914 -0.138 0.293 0.034 0.5 0.172 0.603 0.379 l 0.069 0.224 -0.034 0.172 c -0.121 0.31 -0.379 0.552 -0.81 0.741 -0.172 0.086 -0.362 0.121 -0.569 0.155 l -2.12 0.259 -0.034 -0.121 -0.034 -0.052 0.069 -0.086 1.741 -1.448 0.207 -0.086 0 0 z m -4 4.137 c 0.034 0.586 0.086 1.207 0.172 1.879 l 0 0.69 -0.017 0.172 c -0.121 0.31 -0.328 0.569 -0.638 0.707 -0.31 0.172 -0.638 0.207 -0.948 0.121 -0.345 -0.086 -0.603 -0.293 -0.741 -0.569 -0.086 -0.172 -0.155 -0.379 -0.155 -0.586 l 0.086 -0.396 c 0.034 -0.172 0.121 -0.345 0.259 -0.483 l 1.448 -1.724 c 0.172 0.086 0.345 0.172 0.534 0.189 l 0 0 z m 1.328 -0.224 0.724 0.741 0.448 0.552 0.086 0.172 c 0.155 0.293 0.241 0.569 0.207 0.897 -0.034 0.31 -0.138 0.534 -0.345 0.621 -0.121 0.086 -0.259 0.086 -0.396 0.069 -0.328 -0.086 -0.586 -0.345 -0.776 -0.759 l -0.207 -0.569 -0.259 -1.5 0.293 -0.103 0.224 -0.121 0 0 z m 0.776 -1.069 1.948 -0.172 0.69 -0.017 0.172 0.017 c 0.259 0.086 0.5 0.241 0.638 0.5 0.172 0.19 0.258 0.448 0.258 0.741 l -0.052 0.345 c -0.086 0.345 -0.293 0.604 -0.586 0.741 -0.31 0.172 -0.621 0.207 -0.965 0.086 -0.207 -0.052 -0.345 -0.138 -0.466 -0.276 l -1.81 -1.5 0.121 -0.258 0.052 -0.207 0 0 z" style="fill:#73db47;fill-opacity:1"/>
 <path d="m 6.094 8.426 0.121 0.345 0.052 0.121 c -0.259 0.224 -0.448 0.431 -0.655 0.621 l -0.517 0.431 -0.138 0.086 c -0.328 0.155 -0.603 0.207 -0.896 0.172 -0.259 -0.017 -0.466 -0.103 -0.552 -0.258 l -0.052 -0.19 0.034 -0.155 c 0.086 -0.259 0.31 -0.517 0.707 -0.707 0.207 -0.086 0.379 -0.172 0.517 -0.207 l 1.379 -0.259 0 0 z" style="fill:#f03c4e;fill-opacity:1"/>
 <path d="m 7.08 7.271 c 0.207 -0.19 0.483 -0.31 0.81 -0.31 c 0.31 0 0.603 0.121 0.793 0.31 0.241 0.241 0.345 0.5 0.345 0.81 0 0.31 -0.103 0.603 -0.345 0.81 -0.224 0.224 -0.483 0.345 -0.793 0.345 -0.328 0 -0.604 -0.121 -0.81 -0.345 c -0.224 -0.207 -0.345 -0.5 -0.345 -0.81 c 0 -0.31 0.121 -0.569 0.345 -0.81 l 0 0 z" style="fill:#fffd59;fill-opacity:1"/>
</svg>
